X:136
T:A Foreign Air
M:2/4
K:G
d4 gfed| e4 d2d2| e2g2f2a2| g4b4|\
d4 g2fe| e4 d2e2| d2c2B2A2| G4 G2::\
Bc|\
B2c2 d2cB| A2B2 c2BA| B2c2 d2cB| A4 D4|\
d2d2 d2cB| e2g2 g4| d2B2c2A2| G4 G4::\
g2d2 "tr"d3c/d/| g2e2 e4| e2g2f2a2| g4 b4|\
g2d2 "tr"d3c/d/| a2e2 "tr"e4|d2B2 c2BA| G4 G4::\
d2g2f2a2| g2b2a2c'2| b2d'2 d'2c'b| a4d4|\
e2g2f2a2| g2b2a2c'2| b2d'2 d'c'ba| g4 G4:|
